svgs/benefits.svg

<svg xmlns="http://www.w3.org/2000/svg" viewBox="0 0 192 192"><path d="M53.628 175.577c-2.159-.526-4.1-1.676-5.776-3.423-3.157-3.292-2.982-.235-2.982-52.221 0-42.112.077-47.121.729-47.121.949 0 4.3-1.691 6.254-3.156l1.538-1.153v80.531h84.744v-40.242c0-22.133.116-40.241.258-40.241.141 0 .804.507 1.473 1.127 1.092 1.013 4.219 2.625 6.442 3.321.791.247.828 2.724.71 47.261l-.124 47.001-1.465 2.604c-1.636 2.91-4.999 5.334-8.114 5.849-2.508.415-81.956.284-83.687-.137Zm53.766-13.347c.391-.731.399-1.315.027-2.13l-.512-1.124H96.286c-5.843 0-10.961.129-11.373.287-.752.289-1.075 3.016-.433 3.658.173.174 5.279.316 11.346.316 10.764 0 11.043-.024 11.568-1.007Zm-23.898-45.919c-4.385-1.028-7.224-4.393-7.714-9.141-.506-4.903 1.624-9.116 5.706-11.287 1.591-.846 2.753-1.047 6.085-1.051 2.265-.004 4.338.214 4.606.482.33.33.336 1.04.016 2.196l-.472 1.709-1.874-.476c-7.356-1.867-12.105 6.943-6.587 12.22 1.348 1.289 1.687 1.379 5.151 1.358l3.707-.022.268 1.654c.148.91.206 1.717.129 1.794-.262.263-5.165 1.094-6.169 1.046-.55-.026-1.833-.243-2.852-.482Zm22.209-.161c-1.041-.381-2.332-1.239-2.868-1.907-1.115-1.39-1.629-1.143-1.629.783 0 1.274-.107 1.341-2.131 1.341h-2.13v-31.72h5.208v13.434l1.302-1.242c3.534-3.372 9.158-2.988 12.314.84 2.783 3.377 3.199 9.518.942 13.904-2.018 3.923-7.054 6.012-11.008 4.567Zm4.921-4.784c2.432-2.046 3.065-6.073 1.497-9.525-1.683-3.707-5.568-4.434-8.325-1.556-1.151 1.201-1.393 1.9-1.559 4.496-.117 1.837.043 3.65.398 4.506 1.386 3.347 5.278 4.36 7.989 2.079ZM36.305 64.501c-2.898-.892-6.453-4.096-7.832-7.058-1.043-2.239-1.111-2.938-1.116-11.446l-.004-9.062 13.611-10.466 13.611-10.465 7.906-.002L70.387 16l-7.991 10.5L54.405 37l-.152 9.752-.152 9.751-1.553 2.419c-3.417 5.322-9.876 7.541-16.243 5.579Zm55.904.322c-3.813-1.251-6.711-3.616-8.414-6.868-1.231-2.351-1.274-2.702-1.42-11.655l-.15-9.232 3.496-10.416 3.496-10.415h13.566l3.496 10.415 3.496 10.416-.15 9.232c-.146 8.953-.189 9.304-1.42 11.655-2.307 4.406-6.298 6.873-11.495 7.107-1.823.082-3.848-.025-4.501-.239Zm53.944-.476c-3.084-1.207-4.985-2.752-6.731-5.471l-1.523-2.373-.152-9.751-.152-9.752-7.991-10.5-7.991-10.5 7.906.002 7.906.002 13.611 10.465 13.611 10.466-.004 9.062c-.005 8.508-.073 9.207-1.116 11.446-2.918 6.268-10.897 9.438-17.374 6.904Z"/></svg>

<svg
    xmlns="http://www.w3.org/2000/svg"
    viewBox="0 0 192 192"
    id="vector">
    <g id="group">
        <path
            id="path_6"
            d="M 53.628 175.577 C 51.469 175.051 49.528 173.901 47.852 172.154 C 44.695 168.862 44.87 171.919 44.87 119.933 C 44.87 77.821 44.947 72.812 45.599 72.812 C 46.548 72.812 49.899 71.121 51.853 69.656 L 53.391 68.503 L 53.391 149.034 L 138.135 149.034 L 138.135 108.792 C 138.135 86.659 138.251 68.551 138.393 68.551 C 138.534 68.551 139.197 69.058 139.866 69.678 C 140.958 70.691 144.085 72.303 146.308 72.999 C 147.099 73.246 147.136 75.723 147.018 120.26 L 146.894 167.261 L 145.429 169.865 C 143.793 172.775 140.43 175.199 137.315 175.714 C 134.807 176.129 55.359 175.998 53.628 175.577 Z M 107.394 162.23 C 107.785 161.499 107.793 160.915 107.421 160.1 L 106.909 158.976 L 96.286 158.976 C 90.443 158.976 85.325 159.105 84.913 159.263 C 84.161 159.552 83.838 162.279 84.48 162.921 C 84.653 163.095 89.759 163.237 95.826 163.237 C 106.59 163.237 106.869 163.213 107.394 162.23 Z M 83.496 116.311 C 79.111 115.283 76.272 111.918 75.782 107.17 C 75.276 102.267 77.406 98.054 81.488 95.883 C 83.079 95.037 84.241 94.836 87.573 94.832 C 89.838 94.828 91.911 95.046 92.179 95.314 C 92.509 95.644 92.515 96.354 92.195 97.51 L 91.723 99.219 L 89.849 98.743 C 82.493 96.876 77.744 105.686 83.262 110.963 C 84.61 112.252 84.949 112.342 88.413 112.321 L 92.12 112.299 L 92.388 113.953 C 92.536 114.863 92.594 115.67 92.517 115.747 C 92.255 116.01 87.352 116.841 86.348 116.793 C 85.798 116.767 84.515 116.55 83.496 116.311 Z M 105.705 116.15 C 104.664 115.769 103.373 114.911 102.837 114.243 C 101.722 112.853 101.208 113.1 101.208 115.026 C 101.208 116.3 101.101 116.367 99.077 116.367 L 96.947 116.367 L 96.947 84.647 L 102.155 84.647 L 102.155 98.081 L 103.457 96.839 C 106.991 93.467 112.615 93.851 115.771 97.679 C 118.554 101.056 118.97 107.197 116.713 111.583 C 114.695 115.506 109.659 117.595 105.705 116.15 Z M 110.626 111.366 C 113.058 109.32 113.691 105.293 112.123 101.841 C 110.44 98.134 106.555 97.407 103.798 100.285 C 102.647 101.486 102.405 102.185 102.239 104.781 C 102.122 106.618 102.282 108.431 102.637 109.287 C 104.023 112.634 107.915 113.647 110.626 111.366 Z M 36.305 64.501 C 33.407 63.609 29.852 60.405 28.473 57.443 C 27.43 55.204 27.362 54.505 27.357 45.997 L 27.353 36.935 L 40.964 26.469 L 54.575 16.004 L 62.481 16.002 L 70.387 16 L 62.396 26.5 L 54.405 37 L 54.253 46.752 L 54.101 56.503 L 52.548 58.922 C 49.131 64.244 42.672 66.463 36.305 64.501 Z M 92.209 64.823 C 88.396 63.572 85.498 61.207 83.795 57.955 C 82.564 55.604 82.521 55.253 82.375 46.3 L 82.225 37.068 L 85.721 26.652 L 89.217 16.237 L 102.783 16.237 L 106.279 26.652 L 109.775 37.068 L 109.625 46.3 C 109.479 55.253 109.436 55.604 108.205 57.955 C 105.898 62.361 101.907 64.828 96.71 65.062 C 94.887 65.144 92.862 65.037 92.209 64.823 Z M 146.153 64.347 C 143.069 63.14 141.168 61.595 139.422 58.876 L 137.899 56.503 L 137.747 46.752 L 137.595 37 L 129.604 26.5 L 121.613 16 L 129.519 16.002 L 137.425 16.004 L 151.036 26.469 L 164.647 36.935 L 164.643 45.997 C 164.638 54.505 164.57 55.204 163.527 57.443 C 160.609 63.711 152.63 66.881 146.153 64.347 Z"
            fill="#000000"
            stroke-width="12"/>
    </g>
</svg>
